X:1
T:Title
%%score { 1 | 2 }
L:1/8
M:4/4
K:Ab
V:1 treble nm="Grand Piano"
V:2 bass 
V:1
 z4 z[Q:1/4=100] [CE][CF][CG] | [CA]2 [CG]2 [CF]2 [C=E]2 | [CE]4- [CE][CE][CF][CG] | %3
 [CA]2 [CG]2 [CF]2 [C=E]2 |[M:3/4] [DE]6 |[M:1/4] [DE][DE] |[M:4/4] A2 A2 =A2 FF | %7
[M:17/16] [DB]-<[DB]c-<cd3/2[Fd][Fc][FB] |[M:4/4] [Ee]2 [Ec]2 [CA]3 [DB] | [CA]6 z2 |] %10
V:2
 z4 z [A,,A,][A,,A,][A,,A,] | [A,,E,]2 [A,,E,]2 [A,,A,]2 [A,,A,]2 | %2
 [A,,A,]4- [A,,A,][A,,A,][A,,A,][A,,A,] | [A,,E,]2 [A,,E,]2 [A,,A,]2 [A,,A,]2 |[M:3/4] [B,,G,]6 | %5
[M:1/4] [B,,G,][B,,G,] |[M:4/4] [F,C]2 [F,CF]2 [F,CE]2 [F,=A,E][F,A,E] | %7
[M:17/16] [B,,B,]-<[B,,B,][F,A,E]-<[F,A,E][B,F]3/2[B,,B,][C,=A,][D,B,] | %8
[M:4/4] [C,A,]2 [A,,A,]2 [F,A,]3 [E,G,] | [A,,A,]6 z2 |] %10

